markap/dist/images/Coprorate.svg

<svg width="64" height="64" viewBox="0 0 64 64" fill="none" xmlns="http://www.w3.org/2000/svg">
<g clip-path="url(#clip0_22728_7150)">
<path d="M60.5264 37.7273C59.8389 37.4426 59.1151 37.2982 58.3752 37.2982C56.7435 37.2982 55.2362 37.9946 54.1896 39.1615L52.9696 38.6562L49.4895 37.2147C49.9834 35.5616 50.2499 33.8113 50.2499 31.9998C50.2499 30.1883 49.9832 28.4381 49.4895 26.7849L52.9696 25.3435L54.1896 24.8381C55.2362 26.0051 56.7435 26.7014 58.3752 26.7014C59.1151 26.7014 59.8389 26.5571 60.5264 26.2722C63.3917 25.0852 64.7575 21.7883 63.5705 18.9227C62.6965 16.8128 60.656 15.4493 58.3722 15.4493C57.6324 15.4493 56.9086 15.5937 56.2211 15.8786C53.9629 16.814 52.6374 19.0598 52.7574 21.3722L51.5303 21.8805L48.0513 23.3215C46.3611 20.208 43.7916 17.6383 40.6781 15.9483L42.1191 12.4694L42.6269 11.2436C42.7253 11.2487 42.8239 11.2517 42.9229 11.2517C45.2068 11.2517 47.2471 9.88836 48.1213 7.77836C49.3081 4.91287 47.9425 1.61587 45.077 0.428874C44.3894 0.144375 43.6658 0 42.9259 0C40.642 0 38.6017 1.36337 37.7275 3.47337C36.7922 5.73161 37.4429 8.25698 39.1629 9.80723L38.6564 11.0301L37.2149 14.5102C35.5618 14.0165 33.8115 13.7498 32 13.7498C30.1885 13.7498 28.4383 14.0165 26.7852 14.5102L25.3437 11.0301L24.8372 9.80723C26.5572 8.25698 27.2079 5.73161 26.2725 3.47324C25.3984 1.36337 23.3578 0 21.0741 0C20.3342 0 19.6104 0.144375 18.9229 0.429249C16.0576 1.61625 14.6918 4.91312 15.8788 7.77874C16.7528 9.88861 18.7933 11.2521 21.0771 11.2521C21.1761 11.2521 21.2747 11.2491 21.3731 11.244L21.8808 12.4697L23.3218 15.9487C20.2083 17.6388 17.6387 20.2083 15.9487 23.3218L12.4697 21.8808L11.2426 21.3726C11.3626 19.0602 10.0371 16.8143 7.77883 15.8788C7.09133 15.5941 6.36758 15.4497 5.62771 15.4497C3.34384 15.4497 1.30347 16.8131 0.429344 18.9231C-0.757529 21.7886 0.608094 25.0856 3.47359 26.2726C4.16109 26.5573 4.88484 26.7017 5.62471 26.7017C7.25646 26.7017 8.7637 26.0053 9.81033 24.8383L11.0303 25.3437L14.5104 26.7852C14.0166 28.4383 13.7501 30.1886 13.7501 32.0001C13.7501 33.8116 14.0167 35.5618 14.5104 37.2149L11.0302 38.6562L9.8102 39.1615C8.76358 37.9946 7.25633 37.2982 5.62458 37.2982C4.88471 37.2982 4.16096 37.4426 3.47346 37.7274C0.608094 38.9144 -0.757654 42.2113 0.429344 45.0769C1.30334 47.1868 3.34384 48.5503 5.62758 48.5503C6.36746 48.5503 7.09121 48.4059 7.77871 48.121C10.037 47.1857 11.3624 44.9398 11.2424 42.6274L12.4696 42.1192L15.9486 40.6782C17.6387 43.7917 20.2082 46.3613 23.3217 48.0513L21.8807 51.5303L21.3729 52.756C21.2746 52.7509 21.1759 52.7479 21.0769 52.7479C18.7931 52.7479 16.7527 54.1113 15.8786 56.2213C14.6917 59.0868 16.0573 62.3838 18.9228 63.5708C19.6103 63.8555 20.3341 63.9999 21.0739 63.9999C23.3578 63.9999 25.3982 62.6365 26.2723 60.5265C27.2077 58.2683 26.5569 55.7429 24.8369 54.1926L25.3434 52.9698L26.7849 49.4897C28.438 49.9834 30.1883 50.25 31.9998 50.25C33.8113 50.25 35.5615 49.9834 37.2146 49.4897L38.6561 52.9698L39.1626 54.1926C37.4426 55.7429 36.7919 58.2683 37.7273 60.5266C38.6013 62.6365 40.6418 64 42.9255 64C43.6654 64 44.3891 63.8556 45.0766 63.5708C47.942 62.3838 49.3078 59.0869 48.1208 56.2213C47.2468 54.1114 45.2063 52.7479 42.9225 52.7479C42.8235 52.7479 42.7249 52.7509 42.6265 52.756L42.1188 51.5303L40.6778 48.0513C43.7913 46.3612 46.3609 43.7917 48.0509 40.6782L51.5299 42.1192L52.757 42.6274C52.637 44.9398 53.9625 47.1857 56.2207 48.1212C56.9082 48.4059 57.632 48.5503 58.3719 48.5503C60.6557 48.5503 62.6961 47.1869 63.5702 45.0769C64.7575 42.2113 63.392 38.9143 60.5264 37.7273ZM32 46.4998C24.0048 46.4998 17.5001 39.995 17.5001 31.9998C17.5001 24.0046 24.0048 17.4998 32 17.4998C39.9953 17.4998 46.5 24.0046 46.5 31.9998C46.5 39.995 39.9951 46.4998 32 46.4998Z" fill="black"/>
<path d="M60.5264 37.7273C59.8389 37.4426 59.1151 37.2982 58.3752 37.2982C56.7435 37.2982 55.2362 37.9946 54.1896 39.1615L52.9696 38.6562L49.4895 37.2147C49.9834 35.5616 50.2499 33.8113 50.2499 31.9998C50.2499 30.1883 49.9832 28.4381 49.4895 26.7849L52.9696 25.3435L54.1896 24.8381C55.2362 26.0051 56.7435 26.7014 58.3752 26.7014C59.1151 26.7014 59.8389 26.5571 60.5264 26.2722C63.3917 25.0852 64.7575 21.7883 63.5705 18.9227C62.6965 16.8128 60.656 15.4493 58.3722 15.4493C57.6324 15.4493 56.9086 15.5937 56.2211 15.8786C53.9629 16.814 52.6374 19.0598 52.7574 21.3722L51.5303 21.8805L48.0513 23.3215C46.3611 20.208 43.7916 17.6383 40.6781 15.9483L42.1191 12.4694L42.6269 11.2436C42.7253 11.2487 42.8239 11.2517 42.9229 11.2517C45.2068 11.2517 47.2471 9.88836 48.1213 7.77836C49.3081 4.91287 47.9425 1.61587 45.077 0.428874C44.3894 0.144375 43.6658 0 42.9259 0C40.642 0 38.6017 1.36337 37.7275 3.47337C36.7922 5.73161 37.4429 8.25698 39.1629 9.80723L38.6564 11.0301L37.2149 14.5102C35.5618 14.0165 33.8115 13.7498 32 13.7498C30.1885 13.7498 28.4383 14.0165 26.7852 14.5102L25.3437 11.0301L24.8372 9.80723C26.5572 8.25698 27.2079 5.73161 26.2725 3.47324C25.3984 1.36337 23.3578 0 21.0741 0C20.3342 0 19.6104 0.144375 18.9229 0.429249C16.0576 1.61625 14.6918 4.91312 15.8788 7.77874C16.7528 9.88861 18.7933 11.2521 21.0771 11.2521C21.1761 11.2521 21.2747 11.2491 21.3731 11.244L21.8808 12.4697L23.3218 15.9487C20.2083 17.6388 17.6387 20.2083 15.9487 23.3218L12.4697 21.8808L11.2426 21.3726C11.3626 19.0602 10.0371 16.8143 7.77883 15.8788C7.09133 15.5941 6.36758 15.4497 5.62771 15.4497C3.34384 15.4497 1.30347 16.8131 0.429344 18.9231C-0.757529 21.7886 0.608094 25.0856 3.47359 26.2726C4.16109 26.5573 4.88484 26.7017 5.62471 26.7017C7.25646 26.7017 8.7637 26.0053 9.81033 24.8383L11.0303 25.3437L14.5104 26.7852C14.0166 28.4383 13.7501 30.1886 13.7501 32.0001C13.7501 33.8116 14.0167 35.5618 14.5104 37.2149L11.0302 38.6562L9.8102 39.1615C8.76358 37.9946 7.25633 37.2982 5.62458 37.2982C4.88471 37.2982 4.16096 37.4426 3.47346 37.7274C0.608094 38.9144 -0.757654 42.2113 0.429344 45.0769C1.30334 47.1868 3.34384 48.5503 5.62758 48.5503C6.36746 48.5503 7.09121 48.4059 7.77871 48.121C10.037 47.1857 11.3624 44.9398 11.2424 42.6274L12.4696 42.1192L15.9486 40.6782C17.6387 43.7917 20.2082 46.3613 23.3217 48.0513L21.8807 51.5303L21.3729 52.756C21.2746 52.7509 21.1759 52.7479 21.0769 52.7479C18.7931 52.7479 16.7527 54.1113 15.8786 56.2213C14.6917 59.0868 16.0573 62.3838 18.9228 63.5708C19.6103 63.8555 20.3341 63.9999 21.0739 63.9999C23.3578 63.9999 25.3982 62.6365 26.2723 60.5265C27.2077 58.2683 26.5569 55.7429 24.8369 54.1926L25.3434 52.9698L26.7849 49.4897C28.438 49.9834 30.1883 50.25 31.9998 50.25C33.8113 50.25 35.5615 49.9834 37.2146 49.4897L38.6561 52.9698L39.1626 54.1926C37.4426 55.7429 36.7919 58.2683 37.7273 60.5266C38.6013 62.6365 40.6418 64 42.9255 64C43.6654 64 44.3891 63.8556 45.0766 63.5708C47.942 62.3838 49.3078 59.0869 48.1208 56.2213C47.2468 54.1114 45.2063 52.7479 42.9225 52.7479C42.8235 52.7479 42.7249 52.7509 42.6265 52.756L42.1188 51.5303L40.6778 48.0513C43.7913 46.3612 46.3609 43.7917 48.0509 40.6782L51.5299 42.1192L52.757 42.6274C52.637 44.9398 53.9625 47.1857 56.2207 48.1212C56.9082 48.4059 57.632 48.5503 58.3719 48.5503C60.6557 48.5503 62.6961 47.1869 63.5702 45.0769C64.7575 42.2113 63.392 38.9143 60.5264 37.7273ZM32 46.4998C24.0048 46.4998 17.5001 39.995 17.5001 31.9998C17.5001 24.0046 24.0048 17.4998 32 17.4998C39.9953 17.4998 46.5 24.0046 46.5 31.9998C46.5 39.995 39.9951 46.4998 32 46.4998Z" fill="url(#paint0_linear_22728_7150)"/>
<path d="M32.0001 21.25C26.0726 21.25 21.2501 26.0725 21.2501 32C21.2501 37.9275 26.0726 42.75 32.0001 42.75C37.9276 42.75 42.7501 37.9275 42.7501 32C42.7501 26.0725 37.9276 21.25 32.0001 21.25ZM33.8751 36.125H30.1251V27.875H33.8751V36.125Z" fill="black"/>
<path d="M32.0001 21.25C26.0726 21.25 21.2501 26.0725 21.2501 32C21.2501 37.9275 26.0726 42.75 32.0001 42.75C37.9276 42.75 42.7501 37.9275 42.7501 32C42.7501 26.0725 37.9276 21.25 32.0001 21.25ZM33.8751 36.125H30.1251V27.875H33.8751V36.125Z" fill="url(#paint1_linear_22728_7150)"/>
</g>
<defs>
<linearGradient id="paint0_linear_22728_7150" x1="31.9999" y1="0" x2="31.9999" y2="64" gradientUnits="userSpaceOnUse">
<stop stop-color="#EF8080"/>
<stop offset="1" stop-color="#F0145A"/>
</linearGradient>
<linearGradient id="paint1_linear_22728_7150" x1="32.0001" y1="21.25" x2="32.0001" y2="42.75" gradientUnits="userSpaceOnUse">
<stop stop-color="#EF8080"/>
<stop offset="1" stop-color="#F0145A"/>
</linearGradient>
<clipPath id="clip0_22728_7150">
<rect width="64" height="64" fill="white"/>
</clipPath>
</defs>
</svg>

<svg width="64" height="64" fill="none" xmlns="http://www.w3.org/2000/svg"><g clip-path="url(#clip0_22728_7150)"><path d="M60.526 37.727a5.596 5.596 0 00-2.15-.429 5.61 5.61 0 00-4.186 1.863l-1.22-.505-3.48-1.441A18.19 18.19 0 0050.25 32c0-1.812-.267-3.562-.76-5.215l3.48-1.442 1.22-.505a5.61 5.61 0 004.185 1.863 5.632 5.632 0 005.195-7.779 5.61 5.61 0 00-5.198-3.473 5.634 5.634 0 00-5.615 5.923l-1.227.509-3.479 1.44a18.382 18.382 0 00-7.373-7.373l1.441-3.479.508-1.225a5.61 5.61 0 005.494-3.465A5.632 5.632 0 0042.926 0a5.61 5.61 0 00-5.199 3.473 5.634 5.634 0 001.436 6.334l-.507 1.223-1.441 3.48A18.196 18.196 0 0032 13.75c-1.811 0-3.562.267-5.215.76l-1.441-3.48-.507-1.223a5.634 5.634 0 001.436-6.334A5.61 5.61 0 0021.074 0a5.632 5.632 0 00-5.195 7.779 5.61 5.61 0 005.494 3.465l.508 1.226 1.44 3.479a18.38 18.38 0 00-7.372 7.373l-3.48-1.441-1.226-.508a5.634 5.634 0 00-3.464-5.494 5.595 5.595 0 00-2.151-.43 5.61 5.61 0 00-5.199 3.474 5.632 5.632 0 005.196 7.779 5.61 5.61 0 004.185-1.864l1.22.506 3.48 1.441A18.193 18.193 0 0013.75 32c0 1.812.267 3.562.76 5.215l-3.48 1.441-1.22.505a5.61 5.61 0 00-4.185-1.863A5.632 5.632 0 00.43 45.077a5.61 5.61 0 005.198 3.473c.74 0 1.463-.144 2.15-.429a5.634 5.634 0 003.464-5.494l1.228-.508 3.479-1.44a18.38 18.38 0 007.373 7.372l-1.441 3.48-.508 1.225a5.61 5.61 0 00-5.494 3.465A5.632 5.632 0 0021.074 64a5.61 5.61 0 005.198-3.474 5.634 5.634 0 00-1.435-6.333l.506-1.223 1.442-3.48c1.653.493 3.403.76 5.215.76 1.811 0 3.562-.267 5.215-.76l1.441 3.48.507 1.223a5.634 5.634 0 00-1.436 6.334A5.61 5.61 0 0042.926 64a5.632 5.632 0 005.195-7.779 5.61 5.61 0 00-5.495-3.465l-.507-1.226-1.441-3.479a18.38 18.38 0 007.373-7.373l3.479 1.441 1.227.508a5.634 5.634 0 003.464 5.494c.687.285 1.411.43 2.15.43a5.61 5.61 0 005.2-3.474 5.631 5.631 0 00-3.045-7.35zM32 46.5c-7.995 0-14.5-6.505-14.5-14.5S24.005 17.5 32 17.5 46.5 24.005 46.5 32 39.995 46.5 32 46.5z" fill="#000"/><path d="M60.526 37.727a5.596 5.596 0 00-2.15-.429 5.61 5.61 0 00-4.186 1.863l-1.22-.505-3.48-1.441A18.19 18.19 0 0050.25 32c0-1.812-.267-3.562-.76-5.215l3.48-1.442 1.22-.505a5.61 5.61 0 004.185 1.863 5.632 5.632 0 005.195-7.779 5.61 5.61 0 00-5.198-3.473 5.634 5.634 0 00-5.615 5.923l-1.227.509-3.479 1.44a18.382 18.382 0 00-7.373-7.373l1.441-3.479.508-1.225a5.61 5.61 0 005.494-3.465A5.632 5.632 0 0042.926 0a5.61 5.61 0 00-5.199 3.473 5.634 5.634 0 001.436 6.334l-.507 1.223-1.441 3.48A18.196 18.196 0 0032 13.75c-1.811 0-3.562.267-5.215.76l-1.441-3.48-.507-1.223a5.634 5.634 0 001.436-6.334A5.61 5.61 0 0021.074 0a5.632 5.632 0 00-5.195 7.779 5.61 5.61 0 005.494 3.465l.508 1.226 1.44 3.479a18.38 18.38 0 00-7.372 7.373l-3.48-1.441-1.226-.508a5.634 5.634 0 00-3.464-5.494 5.595 5.595 0 00-2.151-.43 5.61 5.61 0 00-5.199 3.474 5.632 5.632 0 005.196 7.779 5.61 5.61 0 004.185-1.864l1.22.506 3.48 1.441A18.193 18.193 0 0013.75 32c0 1.812.267 3.562.76 5.215l-3.48 1.441-1.22.505a5.61 5.61 0 00-4.185-1.863A5.632 5.632 0 00.43 45.077a5.61 5.61 0 005.198 3.473c.74 0 1.463-.144 2.15-.429a5.634 5.634 0 003.464-5.494l1.228-.508 3.479-1.44a18.38 18.38 0 007.373 7.372l-1.441 3.48-.508 1.225a5.61 5.61 0 00-5.494 3.465A5.632 5.632 0 0021.074 64a5.61 5.61 0 005.198-3.474 5.634 5.634 0 00-1.435-6.333l.506-1.223 1.442-3.48c1.653.493 3.403.76 5.215.76 1.811 0 3.562-.267 5.215-.76l1.441 3.48.507 1.223a5.634 5.634 0 00-1.436 6.334A5.61 5.61 0 0042.926 64a5.632 5.632 0 005.195-7.779 5.61 5.61 0 00-5.495-3.465l-.507-1.226-1.441-3.479a18.38 18.38 0 007.373-7.373l3.479 1.441 1.227.508a5.634 5.634 0 003.464 5.494c.687.285 1.411.43 2.15.43a5.61 5.61 0 005.2-3.474 5.631 5.631 0 00-3.045-7.35zM32 46.5c-7.995 0-14.5-6.505-14.5-14.5S24.005 17.5 32 17.5 46.5 24.005 46.5 32 39.995 46.5 32 46.5z" fill="url(#paint0_linear_22728_7150)"/><path d="M32 21.25c-5.927 0-10.75 4.823-10.75 10.75 0 5.928 4.823 10.75 10.75 10.75 5.928 0 10.75-4.822 10.75-10.75 0-5.927-4.822-10.75-10.75-10.75zm1.875 14.875h-3.75v-8.25h3.75v8.25z" fill="#000"/><path d="M32 21.25c-5.927 0-10.75 4.823-10.75 10.75 0 5.928 4.823 10.75 10.75 10.75 5.928 0 10.75-4.822 10.75-10.75 0-5.927-4.822-10.75-10.75-10.75zm1.875 14.875h-3.75v-8.25h3.75v8.25z" fill="url(#paint1_linear_22728_7150)"/></g><defs><linearGradient id="paint0_linear_22728_7150" x1="32" y1="0" x2="32" y2="64" gradientUnits="userSpaceOnUse"><stop stop-color="#EF8080"/><stop offset="1" stop-color="#F0145A"/></linearGradient><linearGradient id="paint1_linear_22728_7150" x1="32" y1="21.25" x2="32" y2="42.75" gradientUnits="userSpaceOnUse"><stop stop-color="#EF8080"/><stop offset="1" stop-color="#F0145A"/></linearGradient><clipPath id="clip0_22728_7150"><path fill="#fff" d="M0 0h64v64H0z"/></clipPath></defs></svg>
